X:1
T: Margery' Favourite Reel
C:
R:Reel
Q: 232
K:F
M:4/4
L:1/8
|:F2 Ad c2 Ad|cA FA cA f2|F2 Ad c2 Ad|Ad cA GA BG|
F2 Ad c2 Ad|cA FA cA f2|F2 Ad c2 Ad|cA GA F2 F2:|
|:a2 fa g2 eg|fe df e^c A2|a2 fa g2 eg|fe df e2 e2|
a2 fa g2 eg|fe df e^c A2|A2 ^ce ag fe|gf eg f2 f2:|
